X: 5
T: Chanter's Song
R: polka
M: 2/4
L: 1/8
K: Ador
A2{c/}A2 ~e2dB|{c/}AG{c/}A2 ~g g{a/}g|a2e2 ~e2dB|!slide!g2fag ed/c/B/|
A2{c/}A2 ~e2dB|{c/}AG{c/}A2 ~g g{a/}g|a2e2 ~e2dB|1A2 {c/}AGAGEG:|2A2 {c/}AGA4|
{a/}edef ~g2fg|{a/}edef ~g2fg|gae2 ~e2dB|g2fag ed/c/B/|
A2{c/}A2 ~e2dB|{c/}AG{c/}A2 ~g g{a/}g|a2e2 ~e2dB|A2 {c/}AGA4:|


Tune 2082	Setting 22362

